X:1
T:Defiance -- Hornpipe
Z:Bob Puckette <bpuckette:msn.com> 2003-3-10
R:hornpipe
B:Cole's 1000 Fiddle Tunes
M:C|
L:1/8
K:A
(uED)|CEA,E (CE) ((3ABc)|((3dcB) ((3cBA) GABd|\
ceAc defg|aecA B2(ED)|
CEA,E (CE) ((3ABc)|((3dcB) ((3cBA) GABd|\
cefg aefd|cABG A2:|
|:(ucd)|{f}ece"1"a "3"c'"1"a"0"ec|{e}dcdg bgec|\
{e}dcda cBce|aece B2(cd)|
{f}ece"1"a "3"c'"1"a"2"e"4"c|"4"gegb "0"e'c'ae|\
{g}fedB A2:|
